**kern	**kern	**dynam
*part1	*part1	*part1
*staff2	*staff1	*
*I"Piano	*	*
*clefF4	*clefG2	*
*k[]	*k[]	*
=1	=1	=1
4AAA) 4AA	(16cLL	.
.	16e	.
.	16a	.
.	16cc	.
8r	16b	.
.	16aJJ)	.
=	=	=
(4.CC 4.C	(16gnLL	.
.	16b-X	.
.	16a	.
.	16g	.
.	16f)	.
.	[16eJJ	.
=	=	=
4.FF 4.F	(16eLL] 16a	.
.	16g	.
.	16f	.
.	16e	.
.	16d)	.
.	[16aJJ 16bn	.
=	=	=
4.EE 4.E	(16aLL] 16cc	<
.	16e	.
.	16a	.
.	16cc	.
.	16b	.
.	16aJJ)	.
=	=	=
*	*^	*
4EEE) 4EE	(16g#XLL	4.g#	[ >
.	16ff	.	.
.	16ee	.	.
.	16dd	.	.
8r	16cc	.	.
.	16bJJ)	.	.
=	=	=	=
(8AAL 8A	(8ccL	16ccLL	] <
.	.	16a	.
8FF 8F	8dd	16dd	.
.	.	16a	.
8CC#XJ 8C#X	8eeJ	16ee	.
.	.	16gnJJ 16a	.
=	=	=	=
4.DD) 4.D	8ffL	16ffLL	[ >
.	.	16f 16b-X	.
.	8dd	16dd	.
.	.	16f 16b-	.
.	8b-XJ)	16b-	.
.	.	16B-XJJ 16f	.
*	*v	*v	*
=	=	=
*-	*-	*-
!!!system-decoration: {(s1,s2)}
